X: 40
T:Cathal Mconnell's
M:6/8
L:1/8
Q:135
S:Lunasa:Otherworld
K:EMix
EFF EFF| c2 A EFF| EFF AFE | EFF EFF |c2 d ecA |BAF AFE :|
ecA ABc |  d2 f ecA |  AcA  BGE| ecA  ABc|  d2 f  ecA|  BAF AFE :|
